X: 41647
T: Up To Moville
R: barndance
M: 4/4
K: Gmajor
|:GA|B2 BA GBdB|egaf gedc|B2 BA GBdB|cAFA G2:|
Gf|gabg fgaf|edef gdBd|gabg fgaf|edeg a2 ag|
gabg fgaf|egfa gedc|B2 BA GABd|cAFA G2||

